pictures/visa.svg

<svg width="56" height="19" viewBox="0 0 56 19" fill="none" xmlns="http://www.w3.org/2000/svg">
<path d="M24.124 17.7526H19.5832L22.4212 0.311644H26.9624L24.124 17.7526ZM15.7633 0.311644L11.4343 12.3076L10.922 9.72443L10.9225 9.72537L9.39459 1.882C9.39459 1.882 9.20985 0.311644 7.24061 0.311644H0.0839763L0 0.60696C0 0.60696 2.18851 1.0623 4.74978 2.60046L8.69479 17.753H13.4259L20.6502 0.311644H15.7633ZM51.4788 17.7526H55.6482L52.0129 0.311178H48.3628C46.6772 0.311178 46.2666 1.61094 46.2666 1.61094L39.4944 17.7526H44.2279L45.1745 15.1619H50.9469L51.4788 17.7526ZM46.4822 11.5831L48.868 5.05629L50.2103 11.5831H46.4822ZM39.8495 4.50578L40.4975 0.760449C40.4975 0.760449 38.4979 0 36.4134 0C34.1601 0 28.8089 0.984853 28.8089 5.77382C28.8089 10.2796 35.0894 10.3356 35.0894 12.7023C35.0894 15.069 29.456 14.645 27.5969 13.1525L26.9218 17.0686C26.9218 17.0686 28.9494 18.0535 32.0472 18.0535C35.1459 18.0535 39.8205 16.4491 39.8205 12.0823C39.8205 7.54759 33.4836 7.12537 33.4836 5.1538C33.4841 3.18176 37.9064 3.43509 39.8495 4.50578Z" fill="white"/>
<path d="M10.9225 9.72524L9.3946 1.88188C9.3946 1.88188 9.20985 0.311523 7.24061 0.311523H0.0839763L0 0.606839C0 0.606839 3.43975 1.3197 6.73908 3.99061C9.89379 6.54348 10.9225 9.72524 10.9225 9.72524Z" fill="#E6A540"/>
</svg>

<svg width="56" height="19" fill="none" xmlns="http://www.w3.org/2000/svg"><path d="M24.124 17.753h-4.54L22.42.312h4.541l-2.838 17.44ZM15.764.312l-4.33 11.996-.512-2.584v.001L9.396 1.882S9.21.312 7.24.312H.084L0 .607s2.189.455 4.75 1.993l3.945 15.153h4.73L20.65.312h-4.887Zm35.715 17.44h4.17L52.012.313h-3.65c-1.686 0-2.096 1.299-2.096 1.299l-6.773 16.142h4.734l.947-2.591h5.772l.532 2.59Zm-4.997-6.169 2.386-6.527 1.342 6.527h-3.728ZM39.85 4.506 40.498.76s-2-.76-4.085-.76C34.16 0 28.81.985 28.81 5.774c0 4.506 6.28 4.562 6.28 6.928 0 2.367-5.633 1.943-7.492.45l-.675 3.917s2.027.985 5.125.985c3.099 0 7.774-1.605 7.774-5.972 0-4.534-6.337-4.957-6.337-6.928 0-1.972 4.422-1.719 6.365-.648Z" fill="#fff"/><path d="M10.922 9.725 9.396 1.882S9.21.312 7.24.312H.084L0 .607s3.44.713 6.74 3.384c3.154 2.552 4.182 5.734 4.182 5.734Z" fill="#E6A540"/></svg>
